X: 1503
T: Nikrîz Seyir
C: Erol Bingöl
O: Turkey
F: http://compmusic.upf.edu/node/140
N: nikriz--seyir--duyek--1--erol_bingol
N: makam= nikriz
N: form= seyir
N: usul= duyek = 8/4
M: 8/4
L: 1/16
K: C _7/8B ^3/4f ^c 
Q: 1/4=120
%%MIDI tuningsystem comma53
c2 d6 e2 dc d4  | c2 d4 c2 B3A G4  | \
w:   |   | 
d2 e2 ^f2 g2 a2 g2 =f2 e2  | d2 g2 =f2 e2 ed dc c4  | 
w:   |   | 
c2 d4 e2 ^f2 g2 a4  | g2 =f2 e2 d2 d3c B4  | \
w:   |   | 
A2 e2 d2 c2 B3A BA G^F  | 
w:   | 
G2 d2 B2 d2 G8  | |


